src/pos-icons/numeric-3-circle-outline.svg

<svg height="24" viewBox="0 0 24 24" width="24" xmlns="http://www.w3.org/2000/svg"><path d="m15 15a2 2 0 0 1 -2 2h-4v-2h4v-2h-2v-2h2v-2h-4v-2h4a2 2 0 0 1 2 2v1.5a1.5 1.5 0 0 1 -1.5 1.5 1.5 1.5 0 0 1 1.5 1.5zm-3-13a10 10 0 0 1 10 10 10 10 0 0 1 -10 10 10 10 0 0 1 -10-10 10 10 0 0 1 10-10m0 2a8 8 0 0 0 -8 8 8 8 0 0 0 8 8 8 8 0 0 0 8-8 8 8 0 0 0 -8-8z"/></svg>

<?xml version="1.0" encoding="UTF-8"?><!DOCTYPE svg PUBLIC "-//W3C//DTD SVG 1.1//EN" "http://www.w3.org/Graphics/SVG/1.1/DTD/svg11.dtd"><svg xmlns="http://www.w3.org/2000/svg" xmlns:xlink="http://www.w3.org/1999/xlink" version="1.1" id="mdi-numeric-3-circle-outline" width="24" height="24" viewBox="0 0 24 24"><path d="M15,15A2,2 0 0,1 13,17H9V15H13V13H11V11H13V9H9V7H13A2,2 0 0,1 15,9V10.5A1.5,1.5 0 0,1 13.5,12A1.5,1.5 0 0,1 15,13.5V15M12,2A10,10 0 0,1 22,12A10,10 0 0,1 12,22A10,10 0 0,1 2,12A10,10 0 0,1 12,2M12,4A8,8 0 0,0 4,12A8,8 0 0,0 12,20A8,8 0 0,0 20,12A8,8 0 0,0 12,4Z" /></svg>
